src/lib/packages/icons/src/assets/filled/log-in.svg

<svg xmlns="http://www.w3.org/2000/svg" width="24" height="24" fill="none"><path fill="currentColor" d="M21 6v12c0 2-1 3-3 3h-6c-2 0-3-1-3-3v-5.25h5.189l-1.72 1.72a.75.75 0 0 0 1.06 1.061l3-3a.749.749 0 0 0 .162-.817.749.749 0 0 0-.162-.244l-3-3a.75.75 0 1 0-1.061 1.061l1.72 1.72H9V6c0-2 1-3 3-3h6c2 0 3 1 3 3ZM3 11.25a.75.75 0 0 0 0 1.5h6v-1.5H3Z"/></svg>

<svg width="24" height="24" viewBox="0 0 24 24" fill="none" xmlns="http://www.w3.org/2000/svg">
<path d="M21 6V18C21 20 20 21 18 21H12C10 21 9 20 9 18V17V12.75H14.189L12.469 14.47C12.176 14.763 12.176 15.238 12.469 15.531C12.615 15.677 12.807 15.751 12.999 15.751C13.191 15.751 13.383 15.678 13.529 15.531L16.529 12.531C16.598 12.462 16.653 12.379 16.691 12.287C16.767 12.104 16.767 11.897 16.691 11.714C16.653 11.622 16.598 11.539 16.529 11.47L13.529 8.47C13.236 8.177 12.761 8.177 12.468 8.47C12.175 8.763 12.175 9.23801 12.468 9.53101L14.188 11.251H9V7V6C9 4 10 3 12 3H18C20 3 21 4 21 6ZM3 11.25C2.586 11.25 2.25 11.586 2.25 12C2.25 12.414 2.586 12.75 3 12.75H9V11.25H3Z" fill="currentColor"/>
</svg>
